X: 24
T:Denis Murphy's Polka
M:2/4
L:1/8
R:Polka
K:D
f/2g/2f/2e/2 d/2c/2d/2B/2|AD FA|GE e>d|cB BA|!
f/2g/2f/2e/2 d/2c/2d/2B/2|AD FA|GE e>f|1ed d>e:|2ed d>B|!
|:Af f/2e/2f|Ag g/2f/2g|Af fd|e/2f/2e/2d/2 BA|!
Af f/2e/2f|Ag g/2f/2g/2a/2|ba f/2g/2a/2f/2|1ed d>B:|2ed d>e|]!
